X:46
T:Jigs simple chords 93
M:3/4
L:1/8
K:C
g[c'2C,2E,2G,2]c' c2 | d[e2C,2E,2G,2]f g2 | a[_b2B,2D2F2]b d2 | e[f2_B,2D2F2]g a2 | b[c'2C,2E,2G,2]c' c2 |
d[e2C,2E,2G,2]f g2 | g[aF,A,C] bc' d'2 | b2<[c'2C,2E,2G,2] c'2 | g[c'2C,2E,2G,2]c' c2 |
d[e2C,2E,2G,2]f g2 | a[_b2B,2D2F2]b d2 | e[f2_B,2D2F2]g a2 | b[c'2C,2E,2G,2]c' c2 |
d[e2C,2E,2G,2]f g2 | g[aF,A,C] bc' d'2 | b2<[c'2C,2E,2G,2] c'2 | c/d/[e2C,2E,2G,2]e cd |
e[f2F,2A,2C2]e d2 | c[B2D,2F,2A,2]A G2 | A[B2G,2B,2D2]c d2 | ^d[e2A,2C2E2]e c=d |
e[f2D,2F,2A,2]e d2 | c[BG,B,DF] AG A2 | B2<[c2C,2E,2G,2] c2 | c/d/[e2C,2E,2G,2]e cd |
e[f2F,2A,2C2]e d2 | c[B2D,2F,2A,2]A G2 | A[B2G,2B,2D2]c d2 | ^d[e2A,2C2E2]e c=d |
e[f2D,2F,2A,2]e d2 | c[BG,B,DF] AG A2 | B2<[c2C,2E,2G,2] c2 |


